X:1
T:Madan
T:Dunstan
%%score 1 2 3
L:1/8
M:2/4
K:G
V:1 treble nm="Soprano" snm="S."
V:2 treble-8 nm="Tenor" snm="T."
V:3 bass nm="Bass" snm="B."
V:1
 G2 BG | c2 B2 | A2 G2 | d3 B | e2 d2 | c2 B2 | (BA) (cB) | B3 A | A2 ^c2 | d3 B | A2 G2 | G3 G | %12
 (GD) (BG) | (dB) (ec) | B2 A2 | B3 G | (GD) (BG) | (dB) (ec) | B2 A2 | G4 |] %20
V:2
 d2 dg | f2 g2 | d2 (e3/2f/4g/4) | f3 d | c2 B2 | A2 G2 | (GF) (AG) | G3 A | d2 e2 | f3 d | d2 e2 | %11
 A3 B | (BG) (GD) | (BG) (cA) | G2 F2 | G3 B | (BG) (dB) | (BG) (ge) | g2 f2 | g4 |] %20
V:3
 G,2 G,B, | A,2 G,2 | F,2 E,2 | D,3 B, | C2 G,2 | F,2 G,2 | D,2 D,2 | G,,3 D, | F,2 A,2 | D3 G, | %10
 F,2 E,2 | D,3 G, | G,2 G,,2 | G,2 C,2 | D,2 D,2 | G,3 G, | G,2 G,,2 | G,2 C,2 | D,2 D,2 | %19
 [G,,G,]4 |] %20

